packages/ffe-icons/icons/open/400/sm/format_h4.svg

<svg xmlns="http://www.w3.org/2000/svg" height="20" viewBox="0 -960 960 960" width="20"><path d="M180.21-288q-15.21 0-25.71-10.35T144-324v-312q0-15.3 10.29-25.65Q164.58-672 179.79-672t25.71 10.35Q216-651.3 216-636v120h168v-120q0-15 10.29-25.5t25.5-10.5q15.21 0 25.71 10.35T456-636v312q0 15.3-10.29 25.65Q435.42-288 420.21-288t-25.71-10.35Q384-308.7 384-324v-120H216v120q0 15-10.29 25.5t-25.5 10.5Zm600 0q-15.21 0-25.71-10.35T744-324v-84H564q-15.3 0-25.65-10.35Q528-428.7 528-444v-192q0-15.3 10.29-25.65Q548.58-672 563.79-672t25.71 10.35Q600-651.3 600-636v156h144v-156q0-15.3 10.29-25.65Q764.58-672 779.79-672t25.71 10.35Q816-651.3 816-636v156h12q15.3 0 25.65 10.29Q864-459.42 864-444.21t-10.35 25.71Q843.3-408 828-408h-12v84q0 15.3-10.29 25.65Q795.42-288 780.21-288Z"/></svg>

<svg xmlns="http://www.w3.org/2000/svg" height="20" viewBox="0 -960 960 960" width="20"><path d="M180.211-288Q165-288 154.5-298.35 144-308.7 144-324v-312q0-15.3 10.289-25.65 10.29-10.35 25.5-10.35Q195-672 205.5-661.65 216-651.3 216-636v120h168v-120q0-15 10.289-25.5 10.29-10.5 25.5-10.5Q435-672 445.5-661.65 456-651.3 456-636v312q0 15.3-10.289 25.65-10.29 10.35-25.5 10.35Q405-288 394.5-298.35 384-308.7 384-324v-120H216v120q0 15-10.289 25.5-10.29 10.5-25.5 10.5Zm600 0Q765-288 754.5-298.35 744-308.7 744-324v-84H564q-15.3 0-25.65-10.35Q528-428.7 528-444v-192q0-15.3 10.289-25.65 10.29-10.35 25.5-10.35Q579-672 589.5-661.65 600-651.3 600-636v156h144v-156q0-15.3 10.289-25.65 10.29-10.35 25.5-10.35Q795-672 805.5-661.65 816-651.3 816-636v156h12q15.3 0 25.65 10.289 10.35 10.29 10.35 25.5Q864-429 853.65-418.5 843.3-408 828-408h-12v84q0 15.3-10.289 25.65-10.29 10.35-25.5 10.35Z"/></svg>
